X:80
T: Reiters Trostlied
N: A0431A
O: Europa, Mitteleuropa, Deutschland
N: Forster V 1556 No. 49.
R: Romanze, Ballade, Lied, Kriegslied
M: 4/2
L: 1/4
K: G
G2G2G2 | d2d2=fed^c | d4z2
d2 | d2d2=f2f2 | d2c_Bc2c2 | _B4
B4 | d2=f2e2d2 | c6_BAG=FG2 | =F8 | z2
=F2G2A2 | _B2d2c2B2 | _e2d2c4 | _B8 |
B4d2d2 | =f4_e2d4c_B | c_BAGA4 | G8 | z2

@@@ Tune index: 393
